svg/600/sharp/fastfood-fill.svg

<svg xmlns="http://www.w3.org/2000/svg" width="48" height="48" viewBox="0 -960 960 960"><path d="M27-304q0-109 92.999-171 93-62 211-62 117.435 0 210.718 62 93.282 62 93.282 171h-608Zm0 138.218v-80.436h607.999v80.436h-608Zm0 138.783V-108h607.999v81h-608Zm667.999 0V-315q0-103.754-68.521-180.247-68.522-76.492-170.826-97.492l-18.696-160.262h205.565v-180h73.001v180h217.479L856.74-26.999H694.999Z"/></svg>

<svg xmlns="http://www.w3.org/2000/svg" width="48" height="48" viewBox="0 -960 960 960"><path d="M27-304q0-109 93-171t211-62q117.43 0 210.72 62Q635-413 635-304H27Zm0 138.22v-80.44h608v80.44H27ZM27-27v-81h608v81H27Zm668 0v-288q0-103.75-68.52-180.25-68.52-76.49-170.83-97.49L436.96-753h205.56v-180h73v180H933L856.74-27H695Z"/></svg>
